src/images/advantages/guard-icon.svg

<svg fill="none" height="29" viewBox="0 0 28 29" width="28" xmlns="http://www.w3.org/2000/svg"><g fill="#080807"><path d="m20.2953 5.2374-6.2953-3.2374-6.29668 3.23784-5.20332-1.40818v1.4856 11.32214c0 .7523.15948 1.4834.42453 2.1742.4667 1.21 1.24841 2.3086 2.17063 3.3015 1.38678 1.4865 3.10139 2.7386 4.69614 3.6474.7983.4538 1.5656.82 2.2636 1.0823.3495.1313.682.2366 1.0009.3126.3203.0747.6244.1239.9442.1248.4848-.0036.9448-.1088 1.4569-.2681.8876-.2821 1.9083-.7571 2.981-1.3838 1.6041-.9416 3.3085-2.2198 4.6624-3.7297.6761-.7559 1.265-1.5718 1.6963-2.4493.4299-.8766.703-1.8235.7034-2.812 0-2.3776 0-5.2081 0-7.44429 0-1.11806 0-2.08754 0-2.77747 0-.68992 0-1.09949 0-1.09949v-1.48639zm2.9047 11.4c0 .4361-.0921.8943-.2763 1.3737-.3194.8376-.929 1.7301-1.7146 2.5722-1.1752 1.2649-2.7344 2.413-4.1503 3.2162-.7071.4024-1.3792.72-1.933.9275-.2763.1039-.5229.18-.721.2269-.1967.0478-.3473.0628-.4048.0619-.0902.0036-.3849-.0398-.7532-.1592-.6533-.2057-1.5584-.6165-2.5085-1.1742-1.42895-.8351-2.97475-2.0057-4.11258-3.2803-.57006-.6365-1.03727-1.2968-1.35077-1.9376-.31539-.6422-.47528-1.2556-.47482-1.8271 0-2.3776 0-5.2081 0-7.44429 0-.9248 0-1.74518 0-2.39268l3.16653.85666 6.03334-3.10255 6.0325 3.10255.4362-.11806 2.7313-.7386z"/><path d="m14.0003 7.11963-5.31779 2.73411-1.58217-.42808v7.05234c0 2.4007 5.17366 5.881 6.89996 6.1685 1.7264-.2875 6.9-3.7678 6.9-6.1685v-7.05234l-1.5835.42808z"/></g></svg>

<svg width="28" height="29" viewBox="0 0 28 29" fill="none" xmlns="http://www.w3.org/2000/svg">
<path d="M20.2953 5.2374L14 2L7.70332 5.23784L2.5 3.82966V5.31526C2.5 5.31526 2.5 11.8821 2.5 16.6374C2.5 17.3897 2.65948 18.1208 2.92453 18.8116C3.39123 20.0216 4.17294 21.1202 5.09516 22.1131C6.48194 23.5996 8.19655 24.8517 9.7913 25.7605C10.5896 26.2143 11.3569 26.5805 12.0549 26.8428C12.4044 26.9741 12.7369 27.0794 13.0558 27.1554C13.3761 27.2301 13.6802 27.2793 14 27.2802C14.4848 27.2766 14.9448 27.1714 15.4569 27.0121C16.3445 26.73 17.3652 26.255 18.4379 25.6283C20.042 24.6867 21.7464 23.4085 23.1003 21.8986C23.7764 21.1427 24.3653 20.3268 24.7966 19.4493C25.2265 18.5727 25.4996 17.6258 25.5 16.6373C25.5 14.2597 25.5 11.4292 25.5 9.19301C25.5 8.07495 25.5 7.10547 25.5 6.41554C25.5 5.72562 25.5 5.31605 25.5 5.31605V3.82966L20.2953 5.2374ZM23.2 16.6374C23.2 17.0735 23.1079 17.5317 22.9237 18.0111C22.6043 18.8487 21.9947 19.7412 21.2091 20.5833C20.0339 21.8482 18.4747 22.9963 17.0588 23.7995C16.3517 24.2019 15.6796 24.5195 15.1258 24.727C14.8495 24.8309 14.6029 24.907 14.4048 24.9539C14.2081 25.0017 14.0575 25.0167 14 25.0158C13.9098 25.0194 13.6151 24.976 13.2468 24.8566C12.5935 24.6509 11.6884 24.2401 10.7383 23.6824C9.30935 22.8473 7.76355 21.6767 6.62572 20.4021C6.05566 19.7656 5.58845 19.1053 5.27495 18.4645C4.95956 17.8223 4.79967 17.2089 4.80013 16.6374C4.80013 14.2598 4.80013 11.4293 4.80013 9.19311C4.80013 8.26831 4.80013 7.44793 4.80013 6.80043L7.96666 7.65709L14 4.55454L20.0325 7.65709L20.4687 7.53903L23.2 6.80043C23.2 9.01269 23.2 13.2761 23.2 16.6374Z" fill="#080807"/>
<path d="M14.0003 7.11963L8.68251 9.85374L7.10034 9.42566V16.478C7.10034 18.8787 12.274 22.359 14.0003 22.6465C15.7267 22.359 20.9003 18.8787 20.9003 16.478V9.42566L19.3168 9.85374L14.0003 7.11963Z" fill="#080807"/>
</svg>
